icons/oxlint.svg

<svg width="16" height="16" viewBox="0 0 16 16" fill="none" xmlns="http://www.w3.org/2000/svg">
<path d="M10 4C10 3.95232 9.99547 3.90524 9.99219 3.8584C9.98898 3.82205 9.98592 3.78587 9.98145 3.75C9.85825 4.73639 9.01977 5.5 8 5.5V6C9.10457 6 10 5.10457 10 4Z" fill="#AC4C19"/>
<path d="M9 5.72949C8.70554 5.90012 8.36481 6 8 6V5.5H9C9 5.57921 8.99992 5.65528 9 5.72949Z" fill="#AC4C19"/>
<path d="M9.00684 9.57031C9.00257 10.0212 9.00743 11.5 10.5 11.5C11.2238 11.5 12.272 11.0896 12.8359 9.53027L12.0332 9.50098C12.5 8.99992 13.1505 7.89905 13.5 7L13.707 7.21191C14.2266 7.76563 14.9375 8.75 14.5 10.5L13.9229 9.90527C13.3681 13.1535 9.83955 14 8 14V5.5H9C9 6.5 9.00684 7.00046 9.00684 9.57031Z" fill="#AC4C19"/>
<path d="M7.99985 5V14C6.1883 14 2.73604 13.1796 2.10141 10.0527L1.49985 10.5C0.999898 8.50013 1.99983 7.50002 2.49985 7C2.84935 7.89897 3.76641 8.99986 4.23325 9.50098L3.16684 9.54102C3.73169 11.0916 4.77764 11.4999 5.49985 11.5C6.99242 11.5 6.99728 10.0212 6.99301 9.57031C6.99301 7.00046 6.99985 6 6.99985 5H7.99985Z" fill="#FF945A"/>
<path d="M5 7L8 6.5L11 7V8L8 8.5L5 8V7Z" fill="#FF945A"/>
<path d="M8 2C9.10457 2 10 2.89543 10 4C10 5.10457 9.10457 6 8 6C6.89543 6 6 5.10457 6 4C6 2.89543 6.89543 2 8 2ZM8 3C7.44772 3 7 3.44772 7 4C7 4.55228 7.44772 5 8 5C8.55228 5 9 4.55228 9 4C9 3.44772 8.55228 3 8 3Z" fill="#FF945A"/>
<path d="M9.00293 6.83008L8 7.5V6.5H9.00293C9.00312 6.60778 9.00275 6.71783 9.00293 6.83008Z" fill="#AC4C19"/>
<path d="M8 7.5V8.5L11 8V7.5H8Z" fill="#AC4C19"/>
<path d="M8 7.5L6.8 8.3L5 8V7.5H8Z" fill="#AC4C19"/>
<path d="M13.5 7C14 11.5 11 12.5 9 12.5C9.71998 12.5 10.1138 12.0192 10.3154 11.4912C10.3743 11.4965 10.4357 11.5 10.5 11.5C11.2238 11.5 12.272 11.0896 12.8359 9.53027L12.0332 9.50098C12.5 8.99992 13.1505 7.89905 13.5 7Z" fill="#FF945A"/>
</svg>

<svg xmlns="http://www.w3.org/2000/svg" width="16" height="16" fill="none" viewBox="0 0 16 16"><path fill="#AC4C19" d="M10 4q-.002-.072-.008-.142l-.01-.108A2 2 0 0 1 8 5.5V6a2 2 0 0 0 2-2"/><path fill="#AC4C19" d="M9 5.73C8.706 5.9 8.365 6 8 6v-.5h1z"/><path fill="#AC4C19" d="M9.007 9.57c-.004.451 0 1.93 1.493 1.93.724 0 1.772-.41 2.336-1.97l-.803-.029C12.5 9 13.15 7.899 13.5 7l.207.212c.52.554 1.23 1.538.793 3.288l-.577-.595C13.368 13.154 9.84 14 8 14V5.5h1c0 1 .007 1.5.007 4.07"/><path fill="#FF945A" d="M8 5v9c-1.812 0-5.264-.82-5.899-3.947L1.5 10.5c-.5-2 .5-3 1-3.5.35.899 1.266 2 1.733 2.501l-1.066.04c.565 1.55 1.61 1.959 2.333 1.959 1.492 0 1.497-1.479 1.493-1.93C6.993 7 7 6 7 5z"/><path fill="#FF945A" d="m5 7 3-.5 3 .5v1l-3 .5L5 8zm3-5a2 2 0 1 1 0 4 2 2 0 0 1 0-4m0 1a1 1 0 1 0 0 2 1 1 0 0 0 0-2"/><path fill="#AC4C19" d="M9.003 6.83 8 7.5v-1h1.003zM8 7.5v1l3-.5v-.5zm0 0-1.2.8L5 8v-.5z"/><path fill="#FF945A" d="M13.5 7c.5 4.5-2.5 5.5-4.5 5.5.72 0 1.114-.48 1.315-1.009q.089.008.185.009c.724 0 1.772-.41 2.336-1.97l-.803-.029C12.5 9 13.15 7.899 13.5 7"/></svg>
